src/objects/science/1F9EA.svg

<?xml version="1.0" encoding="UTF-8"?>
<svg id="emoji" xmlns="http://www.w3.org/2000/svg" viewBox="0 0 72 72">
  <g id="grid">
    <path d="m68,4v64H4V4h64m4-4H0v72h72V0Z" fill="#b3b3b3"/>
    <path d="m12.923,10.9583h46.1539c1.0621,0,1.9231.861,1.9231,1.9231h0v46.1538c0,1.0621-.861,1.9231-1.9231,1.9231H12.9231c-1.0621,0-1.9231-.861-1.9231-1.9231h0V12.8813c0-1.062.861-1.923,1.923-1.923h0Z" fill="none" stroke="#00a5ff" stroke-miterlimit="10" stroke-width=".1"/>
    <rect x="16" y="4" width="40" height="64" rx="2.2537" ry="2.2537" fill="none" stroke="#00a5ff" stroke-miterlimit="10" stroke-width=".1"/>
    <rect x="4" y="16" width="64" height="40" rx="2.2537" ry="2.2537" fill="none" stroke="#00a5ff" stroke-miterlimit="10" stroke-width=".1"/>
    <circle cx="36" cy="36" r="29" fill="none" stroke="#00a5ff" stroke-miterlimit="10" stroke-width=".1"/>
  </g>
  <g id="color">
    <path d="m30.059,30.0289l.0486-11.8572s4.0334,2.1868,10.6424.2916l.1944,11.7601s-7.5809,2.1868-10.8853-.1944Z" fill="#fff"/>
    <ellipse cx="35.7203" cy="15.2074" rx="6.5302" ry="2.5828" fill="#fff"/>
    <path d="m41.3878,31.7207l.1139,21.128c.0022,3.5932-2.8759,5.581-5.8104,5.9105-.0026.0003-.1552-.043-.5963-.0321-.6004.015-.5719-.0503-1.1488-.2173-2.2112-.8206-3.7488-2.5575-4.2381-5.4223l-.0588-22.2278h0l.0545.0545c1.962.9154,3.6819,1.3441,5.8463,1.2931.9923.0058,1.9829-.0812,2.9589-.26.071-.0119.1539-.0236.2249-.0355,1.0725-.1919,1.1364.0926,2.113-.3906l.541.1993Z" fill="#5c9e31"/>
    <path d="m29.6697,30.8537c1.9619.9152,2.7326,1.4049,4.8968,1.3538.9923.0058,1.9829-.0812,2.9589-.26v20.9725c.0024,2.9118-2.3328,5.6523-4.7343,4.9044-1.9613-1.4335-2.7683-1.5835-3.2078-4.5498l.0864-22.421Z" fill="#b1cc33"/>
  </g>
  <g id="line">
    <path d="m42.06,16.9372v35.43c.1486,3.7465-2.7638,6.9062-6.51,7.0628-3.7462-.1565-6.6586-3.3163-6.51-7.0628V17.2855" fill="none" stroke="#000" stroke-linecap="round" stroke-linejoin="round" stroke-width="2"/>
    <ellipse cx="35.5433" cy="15.2238" rx="7.3933" ry="3.137" fill="none" stroke="#000" stroke-miterlimit="10" stroke-width="2"/>
    <path d="m42.06,29.84v23.08c.0022,3.5932-2.9088,6.5078-6.502,6.51h-.008c-.6006.0021-1.1985-.0816-1.7754-.2486-2.8026-.7909-4.7372-3.3493-4.7346-6.2614v-23.08" fill="none" stroke="#000" stroke-linecap="round" stroke-linejoin="round" stroke-width="2"/>
    <path d="m29.277,30.8938c1.9619.9152,4.1087,1.3648,6.273,1.3137.9923.0058,1.9829-.0812,2.9589-.26.071-.0119.1539-.0236.2249-.0355,1.0725-.1919,2.1126-.5345,3.0891-1.0178" fill="none" stroke="#000" stroke-linecap="round" stroke-linejoin="round" stroke-width="2"/>
  </g>
</svg>

<svg id="emoji" viewBox="0 0 72 72" xmlns="http://www.w3.org/2000/svg">
  <g id="grid">
    <path fill="#b3b3b3" d="M68,4V68H4V4H68m4-4H0V72H72V0Z"/>
    <path fill="none" stroke="#00a5ff" stroke-miterlimit="10" stroke-width="0.1" d="M12.923,10.9583H59.0769A1.9231,1.9231,0,0,1,61,12.8814V59.0352a1.9231,1.9231,0,0,1-1.9231,1.9231H12.9231A1.9231,1.9231,0,0,1,11,59.0352V12.8813A1.923,1.923,0,0,1,12.923,10.9583Z"/>
    <rect x="16" y="4" rx="2.2537" ry="2.2537" width="40" height="64" fill="none" stroke="#00a5ff" stroke-miterlimit="10" stroke-width="0.1"/>
    <rect x="16" y="4" rx="2.2537" ry="2.2537" width="40" height="64" transform="translate(72) rotate(90)" fill="none" stroke="#00a5ff" stroke-miterlimit="10" stroke-width="0.1"/>
    <circle cx="36" cy="36" r="29" fill="none" stroke="#00a5ff" stroke-miterlimit="10" stroke-width="0.1"/>
  </g>
  <g id="color">
    <path fill="#5c9e31" d="M42.06,29.84V52.92a6.506,6.506,0,0,1-6.51,6.51,6.3082,6.3082,0,0,1-1.7754-.2486A6.5,6.5,0,0,1,29.04,52.92V29.84h.7811l-.5444,1.0534A14.0534,14.0534,0,0,0,35.55,32.2075a15.9069,15.9069,0,0,0,2.9589-.26c.071-.0119.1539-.0236.2249-.0355a11.5513,11.5513,0,0,0,3.0891-1.0178"/>
    <path fill="#b1cc33" d="M28.2936,30.8938a14.0534,14.0534,0,0,0,6.2729,1.3137,15.9069,15.9069,0,0,0,2.9589-.26V52.92a6.5,6.5,0,0,1-4.7343,6.261,6.5,6.5,0,0,1-4.7342-6.261V29.84"/>
  </g>
  <g id="line">
    <path fill="none" stroke="#000" stroke-linecap="round" stroke-linejoin="round" stroke-width="2" d="M42.06,16.9372v35.43A6.7993,6.7993,0,0,1,35.55,59.43a6.7992,6.7992,0,0,1-6.51-7.0628V17.2855"/>
    <ellipse cx="35.5433" cy="15.2238" rx="7.3933" ry="3.137" fill="none" stroke="#000" stroke-miterlimit="10" stroke-width="2"/>
    <path fill="none" stroke="#000" stroke-linecap="round" stroke-linejoin="round" stroke-width="2" d="M42.06,29.84V52.92a6.506,6.506,0,0,1-6.51,6.51,6.3082,6.3082,0,0,1-1.7754-.2486A6.5,6.5,0,0,1,29.04,52.92V29.84"/>
    <path fill="none" stroke="#000" stroke-linecap="round" stroke-linejoin="round" stroke-width="2" d="M29.277,30.8938A14.0534,14.0534,0,0,0,35.55,32.2075a15.9069,15.9069,0,0,0,2.9589-.26c.071-.0119.1539-.0236.2249-.0355a11.5513,11.5513,0,0,0,3.0891-1.0178"/>
  </g>
</svg>
